public/editor-src/editor/icons/editor/woo-2.svg

<svg id="nc-woo-2" viewBox="0 0 16 16" version="1.1" xmlns="http://www.w3.org/2000/svg" xmlns:xlink="http://www.w3.org/1999/xlink">
    <g id="woo-element" stroke="none" stroke-width="1" fill="none" fill-rule="evenodd">
        <path d="M2,0 L13.9973125,0 C15,0 16,1 16,2 L16,12 C16,13 15,13.9541875 13.9973125,13.9541875 L9.838125,13.9541875 L10.4791875,15.5240625 L7.659875,13.9541875 L2,13.9541875 C1,13.9541875 6.25e-05,13 6.25e-05,12 C2.08333333e-05,6.98451063 -9.27399433e-17,3.6511773 -1.35525272e-20,2 C6.25e-05,1 1,0 2,0 Z M13.84775,4.626 C13.724125,4.6 13.607125,4.587 13.4965,4.587 C12.872125,4.587 12.3648125,4.9121875 11.9680625,5.562625 C11.6298125,6.1154375 11.46075,6.7268125 11.46075,7.39675 C11.46075,7.8975625 11.5648125,8.3268125 11.7729375,8.6845625 C12.0070625,9.0943125 12.3518125,9.3414375 12.8135625,9.439 C12.937125,9.4650625 13.0541875,9.4780625 13.1648125,9.4780625 C13.7956875,9.4780625 14.303,9.152875 14.69325,8.5024375 C15.0314375,7.9430625 15.2005625,7.3316875 15.2005625,6.6618125 C15.2070625,6.1545 15.0965,5.7316875 14.888375,5.3805 C14.65425,4.97075 14.3095,4.723625 13.84775,4.626 Z M13.5745,8.1446875 C13.3859375,8.3138125 13.2103125,8.3853125 13.04775,8.3528125 C12.891625,8.3203125 12.7615,8.18375 12.664,7.9300625 C12.585875,7.7284375 12.5469375,7.5268125 12.5469375,7.3381875 C12.5469375,7.175625 12.5599375,7.013 12.5924375,6.8634375 C12.651,6.59675 12.7615625,6.3365625 12.937125,6.0894375 C13.1518125,5.7706875 13.3794375,5.6406875 13.6135625,5.6861875 C13.7696875,5.7186875 13.8998125,5.8553125 13.9973125,6.1089375 C14.075375,6.3105625 14.114375,6.5121875 14.114375,6.7008125 C14.114375,6.8699375 14.101375,7.0325 14.068875,7.1820625 C13.9778125,7.611375 13.8151875,7.9300625 13.5745,8.1446875 Z M9.7761875,4.626 C9.652625,4.6 9.5355625,4.587 9.4249375,4.587 C8.8005625,4.587 8.29325,4.9121875 7.8965,5.562625 C7.5583125,6.1154375 7.3891875,6.7268125 7.3891875,7.39675 C7.3891875,7.8975625 7.49325,8.3268125 7.701375,8.6845625 C7.9355,9.0943125 8.28025,9.3414375 8.742,9.439 C8.865625,9.4650625 8.982625,9.4780625 9.09325,9.4780625 C9.724125,9.4780625 10.2314375,9.152875 10.6216875,8.5024375 C10.9599375,7.9430625 11.129,7.3316875 11.129,6.6618125 C11.129,6.1545 11.0249375,5.7316875 10.8168125,5.3805 C10.5826875,4.97075 10.2314375,4.723625 9.7761875,4.626 Z M9.4965,8.1446875 C9.307875,8.3138125 9.13225,8.3853125 8.969625,8.3528125 C8.8135625,8.3203125 8.6835,8.18375 8.585875,7.9300625 C8.507875,7.7284375 8.468875,7.5268125 8.468875,7.3381875 C8.468875,7.175625 8.481875,7.013 8.514375,6.8634375 C8.5729375,6.59675 8.6835,6.3365625 8.859125,6.0894375 C9.07375,5.7706875 9.301375,5.6406875 9.5355,5.6861875 C9.691625,5.7186875 9.82175,5.8553125 9.91925,6.1089375 C9.997375,6.3105625 10.0363125,6.5121875 10.0363125,6.7008125 C10.042875,6.8699375 10.0233125,7.0325 9.9908125,7.1820625 C9.89975,7.611375 9.737125,7.9300625 9.4965,8.1446875 Z M1.320875,4.15775 C1.13875,4.17075 1.0021875,4.23575 0.911125,4.359375 C0.8200625,4.476375 0.7810625,4.626 0.807125,4.795125 C1.1908125,7.234125 1.5485625,8.8796875 1.88025,9.73175 C2.0103125,10.043875 2.159875,10.1935 2.3355,10.1805 C2.6086875,10.161 2.933875,9.78375 3.317625,9.04875 C3.51925,8.6325 3.8314375,8.008125 4.25425,7.175625 C4.6054375,8.404875 5.08675,9.3284375 5.691625,9.946375 C5.86075,10.122 6.0363125,10.2 6.2054375,10.187 C6.3550625,10.174 6.4720625,10.0959375 6.5501875,9.952875 C6.6151875,9.82925 6.64125,9.686125 6.6281875,9.523625 C6.5891875,8.93175 6.64775,8.1056875 6.8103125,7.0455 C6.979375,5.952875 7.1875625,5.165875 7.44125,4.6975625 C7.49325,4.6 7.51275,4.5024375 7.50625,4.385375 C7.49325,4.23575 7.4281875,4.1121875 7.304625,4.014625 C7.1810625,3.9170625 7.0445,3.8715625 6.894875,3.8845 C6.70625,3.8975625 6.563125,3.988625 6.465625,4.17075 C6.062375,4.9056875 5.7761875,6.0959375 5.6070625,7.7479375 C5.3599375,7.1235625 5.1518125,6.3885625 4.9891875,5.5235625 C4.917625,5.1398125 4.7420625,4.95775 4.455875,4.97725 C4.26075,4.99025 4.098125,5.1203125 3.968,5.3675 L2.543625,8.0796875 C2.3095,7.136625 2.088375,5.985375 1.88675,4.626 C1.84125,4.28775 1.652625,4.1316875 1.320875,4.15775 Z" id="Combined-Shape" fill="currentColor" fill-rule="nonzero"></path>
    </g>
</svg>

<svg xmlns="http://www.w3.org/2000/svg" viewBox="0 0 16 16"><path fill="currentColor" fill-rule="nonzero" d="M2 0h11.997C15 0 16 1 16 2v10c0 1-1 1.954-2.003 1.954H9.838l.641 1.57-2.82-1.57H2C1 13.954 0 13 0 12V2c0-1 1-2 2-2Zm11.848 4.626a1.708 1.708 0 0 0-.352-.039c-.624 0-1.131.325-1.528.976a3.446 3.446 0 0 0-.507 1.834c0 .5.104.93.312 1.288.234.41.579.656 1.04.754.124.026.241.04.352.04.63 0 1.138-.326 1.528-.977.338-.559.508-1.17.508-1.84.006-.508-.104-.93-.313-1.282a1.498 1.498 0 0 0-1.04-.754Zm-.274 3.519c-.188.169-.364.24-.526.208-.156-.033-.287-.17-.384-.423a1.65 1.65 0 0 1-.117-.592c0-.162.013-.325.045-.475.059-.266.17-.526.345-.774.215-.318.442-.448.677-.403.156.033.286.17.383.423.078.202.117.403.117.592 0 .169-.013.332-.045.481-.091.43-.254.748-.495.963ZM9.777 4.626a1.708 1.708 0 0 0-.351-.039c-.624 0-1.132.325-1.529.976a3.446 3.446 0 0 0-.507 1.834c0 .5.104.93.312 1.288.235.41.58.656 1.041.754.124.026.24.04.351.04.631 0 1.138-.326 1.529-.977.338-.559.507-1.17.507-1.84 0-.508-.104-.93-.312-1.282a1.512 1.512 0 0 0-1.04-.754Zm-.28 3.519c-.188.169-.364.24-.526.208-.156-.033-.287-.17-.384-.423a1.652 1.652 0 0 1-.117-.592c0-.162.013-.325.045-.475.059-.266.17-.526.345-.774.215-.318.442-.448.677-.403.156.033.286.17.383.423.078.202.117.403.117.592.007.169-.013.332-.045.481-.091.43-.254.748-.495.963ZM1.321 4.158c-.182.013-.319.078-.41.201a.554.554 0 0 0-.104.436c.384 2.44.742 4.085 1.073 4.937.13.312.28.462.456.449.273-.02.598-.397.982-1.132.201-.416.513-1.04.936-1.873.351 1.229.833 2.152 1.438 2.77.169.176.344.254.513.241a.42.42 0 0 0 .345-.234.772.772 0 0 0 .078-.43c-.039-.591.02-1.417.182-2.478.17-1.092.378-1.88.631-2.347a.565.565 0 0 0 .065-.313.51.51 0 0 0-.201-.37.565.565 0 0 0-.41-.13.5.5 0 0 0-.43.286c-.403.735-.689 1.925-.858 3.577a12.155 12.155 0 0 1-.618-2.224c-.071-.384-.247-.566-.533-.547-.195.013-.358.143-.488.39L2.544 8.08a37.294 37.294 0 0 1-.657-3.454c-.046-.338-.234-.494-.566-.468Z"/></svg>
